X:1
T:Title
%%score { ( 1 4 5 ) | ( 2 3 6 ) }
L:1/8
Q:1/4=100
M:4/4
K:C
V:1 treble nm="Grand Piano"
V:4 treble 
V:5 treble 
V:2 bass 
V:3 bass 
V:6 bass 
V:1
 [G,CE]2 [G,CE]2 [CEG]2 [CEG]2 | [DGB]2 [B,FG]2 [CEG]2 [G,CE]2 | %2
w: J.~E.~Gould * * *||
 [A,CE]2 [A,D^F]2 [B,DG]2 [G,D][GB] | [CEA]E .[A,D^F]2 [B,DG]4 | z4 d4 | z4 d2 z2 | %6
w: ||||
 .[CG]2 z2 .[CA]2 z2 | [CE]2 [B,EG][DF] [G,CE]4 |] %8
w: ||
V:2
 C,2 C,2 C,2 C,2 | G,2 G,,2 C,2 C,2 | A,,2 A,,2 G,,2 z D | z A, z C G,,4 | %4
 z[K:treble] G[CE]G[K:bass] z[K:treble] GDG | z GCG[K:bass] .[B,D]2 .[B,D]2 | %6
 z2[K:treble] c[K:bass]C, z A,2 ^F, | G,2 z G, C,4 |] %8
V:3
 x8 | x8 | z4 z2 B,,2 | C,2 D,2 z4 | C,4[K:treble][K:bass] B,,4[K:treble] | D,4[K:bass] G,,4 | %6
 z[K:treble] .G,3[K:bass] F,2 z2 | z2 G,,2 z4 |] %8
V:4
 x8 | x8 | x8 | x8 | [CEG]cBc .[DF]2 .F2 | [CEG]eBc z z/ B/ GG | E3 [CEG] F- [Fc]2 [A,CD] | x8 |] %8
V:5
 x8 | x8 | x8 | x8 | x8 | z4 z G z2 | x8 | x8 |] %8
V:6
 x8 | x8 | x8 | x8 | x[K:treble] x3[K:bass] x[K:treble] x3 | x4[K:bass] x4 | %6
 C,4[K:treble][K:bass] z4 | x8 |] %8

